;FLAVOR:Marlin
;TIME:20819
;Filament used: 17.4536m
;Layer height: 0.2
;MINX:29.275
;MINY:12.785
;MINZ:0.2
;MAXX:190.725
;MAXY:207.215
;MAXZ:14
;Generated with Cura_SteamEngine 4.11.0
M140 S60
M105
M190 S60
M104 S200
M105
M109 S200
M82 ;absolute extrusion mode
; Ender 3 Custom Start G-code
G92 E0 ; Reset Extruder
G28 ; Home all axes
G1 Z2.0 F3000 ; Move Z Axis up little to prevent scratching of Heat Bed
G1 X0.1 Y20 Z0.3 F5000.0 ; Move to start position
G1 X0.1 Y200.0 Z0.3 F1500.0 E15 ; Draw the first line
G1 X0.4 Y200.0 Z0.3 F5000.0 ; Move to side a little
G1 X0.4 Y20 Z0.3 F1500.0 E30 ; Draw the second line
G92 E0 ; Reset Extruder
G1 Z2.0 F3000 ; Move Z Axis up little to prevent scratching of Heat Bed
G1 X5 Y20 Z0.3 F5000.0 ; Move over to prevent blob squish
G92 E0
G92 E0
G1 F1500 E-6.5
;LAYER_COUNT:70
;LAYER:0
M107
G0 F6000 X30.776 Y18.264 Z0.2
;TYPE:SKIRT
G1 F1500 E0
G1 F1200 X31.282 Y17.474 E0.0312
G1 X31.853 Y16.73 E0.0624
G1 X32.485 Y16.037 E0.09359
G1 X33.174 Y15.401 E0.12478
G1 X33.915 Y14.826 E0.15597
G1 X34.702 Y14.316 E0.18717
G1 X35.53 Y13.875 E0.21837
G1 X36.392 Y13.506 E0.24955
G1 X37.283 Y13.212 E0.28076
G1 X38.195 Y12.994 E0.31195
G1 X39.122 Y12.856 E0.34312
G1 X39.976 Y12.798 E0.37159
G1 X40.296 Y12.789 E0.38224
G1 X40.605 Y12.785 E0.39252
G1 X179.018 Y12.785 E4.99615
G1 X179.874 Y12.796 E5.02462
G1 X180.81 Y12.85 E5.05581
G1 X181.738 Y12.982 E5.08698
G1 X182.652 Y13.194 E5.11819
G1 X183.544 Y13.483 E5.14938
G1 X184.409 Y13.846 E5.18058
G1 X185.239 Y14.282 E5.21176
G1 X186.03 Y14.787 E5.24297
G1 X186.774 Y15.358 E5.27417
G1 X187.467 Y15.99 E5.30536
G1 X188.104 Y16.678 E5.33655
G1 X188.679 Y17.419 E5.36774
G1 X189.19 Y18.205 E5.39892
G1 X189.632 Y19.033 E5.43014
G1 X190.001 Y19.895 E5.46133
G1 X190.296 Y20.785 E5.49251
G1 X190.514 Y21.697 E5.5237
G1 X190.654 Y22.625 E5.55492
G1 X190.712 Y23.486 E5.58362
G1 X190.721 Y23.806 E5.59426
G1 X190.725 Y24.115 E5.60454
G1 X190.724 Y79.9 E7.45996
G1 X190.714 Y80.616 E7.48378
G1 X190.688 Y81.239 E7.50451
G1 X190.604 Y82.427 E7.54413
G1 X190.599 Y82.63 E7.55088
G1 X190.495 Y84.151 E7.60159
G1 X190.394 Y86.661 E7.68514
G1 X190.365 Y89.185 E7.76909
G1 X190.406 Y91.673 E7.85185
G1 X190.52 Y94.219 E7.93662
G1 X190.684 Y96.483 E8.01212
G1 X190.695 Y96.666 E8.01822
G1 X190.71 Y96.993 E8.0291
G1 X190.72 Y97.323 E8.04008
G1 X190.725 Y97.656 E8.05116
G1 X190.724 Y161.645 E10.17944
G1 X190.714 Y162.362 E10.20329
G1 X190.688 Y162.979 E10.22383
G1 X190.619 Y163.941 E10.25591
G1 X190.53 Y164.987 E10.29083
G1 X190.388 Y167.499 E10.37451
G1 X190.316 Y169.995 E10.45756
G1 X190.316 Y172.519 E10.54151
G1 X190.387 Y175.07 E10.62639
G1 X190.528 Y177.551 E10.70904
G1 X190.643 Y179.017 E10.75795
G1 X190.675 Y179.391 E10.77044
G1 X190.711 Y180.027 E10.79162
G1 X190.72 Y180.34 E10.80204
G1 X190.725 Y180.656 E10.81255
G1 X190.724 Y195.63 E11.31059
G1 X190.714 Y196.357 E11.33477
G1 X190.661 Y197.294 E11.36598
G1 X190.529 Y198.222 E11.39716
G1 X190.318 Y199.136 E11.42836
G1 X190.029 Y200.028 E11.45954
G1 X189.666 Y200.893 E11.49075
G1 X189.231 Y201.724 E11.52194
G1 X188.726 Y202.514 E11.55313
G1 X188.156 Y203.259 E11.58433
G1 X187.525 Y203.953 E11.61552
G1 X186.836 Y204.59 E11.64673
G1 X186.096 Y205.166 E11.67792
G1 X185.31 Y205.677 E11.70911
G1 X184.483 Y206.119 E11.74029
G1 X183.621 Y206.489 E11.77149
G1 X182.731 Y206.784 E11.80268
G1 X181.819 Y207.003 E11.83387
G1 X180.892 Y207.143 E11.86506
G1 X180.024 Y207.202 E11.89399
G1 X179.704 Y207.211 E11.90464
G1 X179.395 Y207.215 E11.91492
G1 X40.84 Y207.214 E16.52328
G1 X40.142 Y207.205 E16.54649
G1 X39.206 Y207.153 E16.57767
G1 X38.277 Y207.021 E16.60888
G1 X37.363 Y206.811 E16.64007
G1 X36.47 Y206.524 E16.67127
G1 X35.605 Y206.161 E16.70247
G1 X34.774 Y205.727 E16.73365
G1 X33.983 Y205.223 E16.76485
G1 X33.238 Y204.653 E16.79605
G1 X32.544 Y204.022 E16.82725
G1 X31.907 Y203.335 E16.85841
G1 X31.33 Y202.595 E16.88962
G1 X30.818 Y201.809 E16.92082
G1 X30.375 Y200.982 E16.95202
G1 X30.004 Y200.121 E16.9832
G1 X29.708 Y199.231 E17.0144
G1 X29.489 Y198.319 E17.04559
G1 X29.348 Y197.392 E17.07678
G1 X29.288 Y196.503 E17.10642
G1 X29.279 Y196.17 E17.1175
G1 X29.275 Y195.873 E17.12737
G1 X29.276 Y180.876 E17.62618
G1 X29.286 Y180.179 E17.64936
G1 X29.312 Y179.567 E17.66974
G1 X29.383 Y178.574 E17.70285
G1 X29.471 Y177.548 E17.7371
G1 X29.612 Y175.046 E17.82045
G1 X29.684 Y172.55 E17.9035
G1 X29.684 Y170.026 E17.98745
G1 X29.613 Y167.475 E18.07233
G1 X29.472 Y164.994 E18.15498
G1 X29.356 Y163.509 E18.20452
G1 X29.325 Y163.154 E18.21637
G1 X29.289 Y162.518 E18.23756
G1 X29.28 Y162.205 E18.24797
G1 X29.275 Y161.889 E18.25848
G1 X29.276 Y97.875 E20.3876
G1 X29.286 Y97.177 E20.41082
G1 X29.312 Y96.558 E20.43142
G1 X29.396 Y95.371 E20.471
G1 X29.401 Y95.168 E20.47776
G1 X29.505 Y93.647 E20.52846
G1 X29.606 Y91.137 E20.61201
G1 X29.635 Y88.613 E20.69597
G1 X29.594 Y86.125 E20.77873
G1 X29.48 Y83.579 E20.86349
G1 X29.317 Y81.338 E20.93823
G1 X29.305 Y81.145 E20.94466
G1 X29.288 Y80.771 E20.95711
G1 X29.279 Y80.451 E20.96776
G1 X29.275 Y80.142 E20.97804
G1 X29.276 Y24.294 E22.83555
G1 X29.286 Y23.629 E22.85767
G1 X29.34 Y22.692 E22.88889
G1 X29.474 Y21.764 E22.92007
G1 X29.686 Y20.85 E22.95128
G1 X29.975 Y19.958 E22.98246
G1 X30.34 Y19.094 E23.01366
G1 X30.776 Y18.264 E23.04484
G0 F6000 X31.173 Y18.378
G1 F1200 X31.678 Y17.607 E23.0755
G1 X32.247 Y16.884 E23.1061
G1 X32.877 Y16.212 E23.13674
G1 X33.563 Y15.598 E23.16736
G1 X34.299 Y15.046 E23.19796
G1 X35.081 Y14.559 E23.2286
G1 X35.902 Y14.143 E23.25921
G1 X36.756 Y13.799 E23.28983
G1 X37.636 Y13.53 E23.32044
G1 X38.537 Y13.339 E23.35107
G1 X39.451 Y13.227 E23.3817
G1 X39.987 Y13.198 E23.39955
G1 X40.307 Y13.189 E23.4102
G1 X40.605 Y13.185 E23.42011
G1 X179.018 Y13.185 E28.02375
G1 X179.868 Y13.196 E28.05202
G1 X180.787 Y13.249 E28.08264
G1 X181.698 Y13.382 E28.11326
G1 X182.594 Y13.593 E28.14387
G1 X183.468 Y13.881 E28.17448
G1 X184.315 Y14.244 E28.20513
G1 X185.126 Y14.679 E28.23574
G1 X185.896 Y15.183 E28.26635
G1 X186.62 Y15.752 E28.29697
G1 X187.292 Y16.382 E28.32761
G1 X187.907 Y17.067 E28.35823
G1 X188.46 Y17.803 E28.38885
G1 X188.947 Y18.584 E28.41946
G1 X189.364 Y19.405 E28.45009
G1 X189.709 Y20.259 E28.48072
G1 X189.978 Y21.139 E28.51133
G1 X190.17 Y22.04 E28.54197
G1 X190.283 Y22.953 E28.57257
G1 X190.312 Y23.497 E28.59069
G1 X190.321 Y23.817 E28.60133
G1 X190.325 Y24.115 E28.61125
G1 X190.324 Y79.894 E30.46646
G1 X190.314 Y80.61 E30.49028
G1 X190.289 Y81.21 E30.51025
G1 X190.211 Y82.315 E30.5471
G1 X190.2 Y82.602 E30.55665
G1 X190.097 Y84.104 E30.60672
G1 X189.994 Y86.676 E30.69234
G1 X189.965 Y89.152 E30.7747
G1 X190.008 Y91.733 E30.86055
G1 X190.12 Y94.23 E30.94369
G1 X190.285 Y96.507 E31.01962
G1 X190.296 Y96.69 E31.02572
G1 X190.31 Y97.005 E31.0362
G1 X190.32 Y97.335 E31.04718
G1 X190.325 Y97.656 E31.05786
G1 X190.324 Y161.64 E33.18598
G1 X190.314 Y162.357 E33.20983
G1 X190.289 Y162.951 E33.2296
G1 X190.221 Y163.907 E33.26148
G1 X190.131 Y164.964 E33.29676
G1 X189.989 Y167.467 E33.38015
G1 X189.916 Y170.018 E33.46503
G1 X189.916 Y172.53 E33.54858
G1 X189.987 Y175.068 E33.63302
G1 X190.131 Y177.61 E33.71771
G1 X190.245 Y179.068 E33.76635
G1 X190.276 Y179.426 E33.7783
G1 X190.312 Y180.038 E33.79869
G1 X190.321 Y180.351 E33.8091
G1 X190.325 Y180.656 E33.81925
G1 X190.324 Y195.625 E34.31712
G1 X190.314 Y196.352 E34.3413
G1 X190.261 Y197.271 E34.37192
G1 X190.129 Y198.182 E34.40254
G1 X189.918 Y199.078 E34.43315
G1 X189.631 Y199.953 E34.46378
G1 X189.268 Y200.799 E34.4944
G1 X188.834 Y201.611 E34.52502
G1 X188.33 Y202.382 E34.55566
G1 X187.762 Y203.106 E34.58627
G1 X187.133 Y203.778 E34.61688
G1 X186.448 Y204.393 E34.6475
G1 X185.712 Y204.946 E34.67812
G1 X184.931 Y205.434 E34.70875
G1 X184.111 Y205.852 E34.73936
G1 X183.257 Y206.197 E34.76999
G1 X182.377 Y206.466 E34.8006
G1 X181.476 Y206.659 E34.83125
G1 X180.563 Y206.772 E34.86185
G1 X180.013 Y206.802 E34.88017
G1 X179.693 Y206.811 E34.89081
G1 X179.395 Y206.815 E34.90073
G1 X40.845 Y206.814 E39.50892
G1 X40.147 Y206.805 E39.53214
G1 X39.228 Y206.753 E39.56275
G1 X38.317 Y206.622 E39.59336
G1 X37.421 Y206.412 E39.62397
G1 X36.546 Y206.125 E39.6546
G1 X35.699 Y205.763 E39.68523
G1 X34.887 Y205.329 E39.71586
G1 X34.116 Y204.827 E39.74646
G1 X33.391 Y204.259 E39.77709
G1 X32.718 Y203.63 E39.80773
G1 X32.103 Y202.946 E39.83832
G1 X31.549 Y202.211 E39.86894
G1 X31.061 Y201.43 E39.89957
G1 X30.642 Y200.61 E39.93019
G1 X30.296 Y199.757 E39.96081
G1 X30.026 Y198.877 E39.99142
G1 X29.833 Y197.976 E40.02207
G1 X29.719 Y197.063 E40.05267
G1 X29.688 Y196.492 E40.07169
G1 X29.679 Y196.159 E40.08277
G1 X29.675 Y195.873 E40.09229
G1 X29.676 Y180.882 E40.59089
G1 X29.686 Y180.185 E40.61407
G1 X29.711 Y179.595 E40.63372
G1 X29.769 Y178.769 E40.66126
G1 X29.868 Y177.606 E40.70008
G1 X30.011 Y175.078 E40.78429
G1 X30.084 Y172.527 E40.86917
G1 X30.084 Y170.015 E40.95272
G1 X30.013 Y167.477 E41.03717
G1 X29.869 Y164.935 E41.12185
G1 X29.755 Y163.477 E41.1705
G1 X29.724 Y163.119 E41.18245
G1 X29.688 Y162.507 E41.20284
G1 X29.679 Y162.194 E41.21325
G1 X29.675 Y161.889 E41.2234
G1 X29.676 Y97.881 E43.35231
G1 X29.686 Y97.183 E43.37553
G1 X29.711 Y96.586 E43.3954
G1 X29.789 Y95.481 E43.43225
G1 X29.8 Y95.196 E43.44173
G1 X29.903 Y93.694 E43.49181
G1 X30.006 Y91.122 E43.57742
G1 X30.035 Y88.646 E43.65978
G1 X29.992 Y86.065 E43.74564
G1 X29.879 Y83.55 E43.82937
G1 X29.716 Y81.313 E43.90397
G1 X29.704 Y81.12 E43.9104
G1 X29.688 Y80.76 E43.92239
G1 X29.679 Y80.44 E43.93303
G1 X29.675 Y80.142 E43.94295
G1 X29.676 Y24.3 E45.80026
G1 X29.686 Y23.635 E45.82238
G1 X29.74 Y22.716 E45.853
G1 X29.873 Y21.805 E45.88362
G1 X30.085 Y20.909 E45.91424
G1 X30.374 Y20.034 E45.94489
G1 X30.738 Y19.189 E45.97549
G1 X31.173 Y18.378 E46.0061
G0 F6000 X31.57 Y18.494
G1 F1200 X32.073 Y17.743 E46.03617
G1 X32.641 Y17.041 E46.0662
G1 X33.268 Y16.391 E46.09624
G1 X33.95 Y15.799 E46.12628
G1 X34.682 Y15.27 E46.15631
G1 X35.458 Y14.808 E46.18635
G1 X36.272 Y14.417 E46.21639
G1 X37.117 Y14.098 E46.24643
G1 X37.987 Y13.856 E46.27646
G1 X38.875 Y13.692 E46.3065
G1 X39.998 Y13.598 E46.34398
G1 X40.318 Y13.589 E46.35463
G1 X40.605 Y13.585 E46.36417
G1 X179.018 Y13.585 E50.96781
G1 X179.862 Y13.596 E50.99588
G1 X180.764 Y13.649 E51.02593
G1 X181.657 Y13.781 E51.05596
G1 X182.535 Y13.992 E51.08599
G1 X183.391 Y14.28 E51.11603
G1 X184.218 Y14.642 E51.14606
G1 X185.01 Y15.077 E51.17611
G1 X185.761 Y15.579 E51.20616
G1 X186.464 Y16.146 E51.2362
G1 X187.114 Y16.773 E51.26623
G1 X187.706 Y17.455 E51.29627
G1 X188.236 Y18.186 E51.3263
G1 X188.698 Y18.962 E51.35634
G1 X189.091 Y19.775 E51.38637
G1 X189.409 Y20.62 E51.4164
G1 X189.652 Y21.49 E51.44645
G1 X189.817 Y22.378 E51.47649
G1 X189.912 Y23.508 E51.5142
G1 X189.921 Y23.828 E51.52485
G1 X189.925 Y24.115 E51.5344
G1 X189.924 Y79.888 E53.38941
G1 X189.914 Y80.604 E53.41323
G1 X189.89 Y81.182 E53.43247
G1 X189.802 Y82.424 E53.47388
G1 X189.801 Y82.575 E53.47891
G1 X189.696 Y84.097 E53.52965
G1 X189.594 Y86.656 E53.61483
G1 X189.565 Y89.154 E53.69792
G1 X189.608 Y91.722 E53.78334
G1 X189.722 Y94.277 E53.86841
G1 X189.886 Y96.531 E53.94357
G1 X189.897 Y96.714 E53.94967
G1 X189.91 Y97.017 E53.95976
G1 X189.92 Y97.347 E53.97074
G1 X189.925 Y97.656 E53.98102
G1 X189.924 Y161.634 E56.10894
G1 X189.914 Y162.351 E56.13279
G1 X189.89 Y162.923 E56.15183
G1 X189.822 Y163.873 E56.1835
G1 X189.734 Y164.908 E56.21805
G1 X189.589 Y167.467 E56.3033
G1 X189.516 Y170.007 E56.38782
G1 X189.516 Y172.541 E56.4721
G1 X189.587 Y175.068 E56.55618
G1 X189.734 Y177.662 E56.6426
G1 X189.839 Y179.011 E56.6876
G1 X189.878 Y179.46 E56.70259
G1 X189.912 Y180.05 E56.72225
G1 X189.921 Y180.363 E56.73266
G1 X189.925 Y180.656 E56.74241
G1 X189.924 Y195.619 E57.24008
G1 X189.914 Y196.346 E57.26426
G1 X189.862 Y197.248 E57.29431
G1 X189.73 Y198.141 E57.32433
G1 X189.519 Y199.02 E57.3544
G1 X189.232 Y199.876 E57.38443
G1 X188.87 Y200.703 E57.41445
G1 X188.436 Y201.495 E57.44449
G1 X187.934 Y202.246 E57.47454
G1 X187.368 Y202.949 E57.50456
G1 X186.741 Y203.6 E57.53462
G1 X186.06 Y204.192 E57.56463
G1 X185.329 Y204.722 E57.59466
G1 X184.553 Y205.185 E57.62472
G1 X183.74 Y205.578 E57.65475
G1 X182.895 Y205.898 E57.6848
G1 X182.026 Y206.141 E57.71481
G1 X181.138 Y206.306 E57.74485
G1 X180.002 Y206.402 E57.78277
G1 X179.682 Y206.411 E57.79342
G1 X179.395 Y206.415 E57.80297
G1 X40.85 Y206.414 E62.41099
G1 X40.152 Y206.405 E62.43421
G1 X39.251 Y206.354 E62.46423
G1 X38.357 Y206.222 E62.49428
G1 X37.479 Y206.013 E62.5243
G1 X36.622 Y205.726 E62.55436
G1 X35.795 Y205.365 E62.58437
G1 X35.002 Y204.932 E62.61442
G1 X34.251 Y204.431 E62.64445
G1 X33.547 Y203.865 E62.67449
G1 X32.896 Y203.239 E62.70453
G1 X32.303 Y202.558 E62.73457
G1 X31.773 Y201.827 E62.7646
G1 X31.309 Y201.052 E62.79464
G1 X30.915 Y200.239 E62.82469
G1 X30.595 Y199.395 E62.85471
G1 X30.351 Y198.525 E62.88476
G1 X30.185 Y197.637 E62.91481
G1 X30.088 Y196.482 E62.95336
G1 X30.079 Y196.149 E62.96444
G1 X30.075 Y195.873 E62.97362
G1 X30.076 Y180.888 E63.47203
G1 X30.086 Y180.191 E63.49521
G1 X30.11 Y179.623 E63.51412
G1 X30.18 Y178.642 E63.54683
G1 X30.267 Y177.627 E63.58071
G1 X30.411 Y175.078 E63.66563
G1 X30.484 Y172.538 E63.75014
G1 X30.484 Y170.004 E63.83443
G1 X30.413 Y167.477 E63.91851
G1 X30.266 Y164.883 E64.00492
G1 X30.161 Y163.534 E64.04993
G1 X30.122 Y163.085 E64.06492
G1 X30.088 Y162.495 E64.08457
G1 X30.079 Y162.182 E64.09499
G1 X30.075 Y161.889 E64.10473
G1 X30.076 Y97.887 E66.23345
G1 X30.086 Y97.189 E66.25667
G1 X30.11 Y96.614 E66.27581
G1 X30.198 Y95.373 E66.31719
G1 X30.199 Y95.223 E66.32218
G1 X30.304 Y93.701 E66.37292
G1 X30.406 Y91.142 E66.4581
G1 X30.435 Y88.644 E66.54119
G1 X30.392 Y86.076 E66.62661
G1 X30.278 Y83.521 E66.71168
G1 X30.116 Y81.288 E66.78614
G1 X30.104 Y81.095 E66.79257
G1 X30.088 Y80.749 E66.80409
G1 X30.079 Y80.429 E66.81474
G1 X30.075 Y80.142 E66.82429
G1 X30.076 Y24.306 E68.6814
G1 X30.086 Y23.641 E68.70352
G1 X30.14 Y22.739 E68.73357
G1 X30.273 Y21.846 E68.7636
G1 X30.484 Y20.968 E68.79364
G1 X30.773 Y20.112 E68.82369
G1 X31.136 Y19.285 E68.85373
G1 X31.57 Y18.494 E68.88373
G1 F1500 E62.38373
;MESH:lower_layer_base_v2.stl
G0 F6000 X48.022 Y75.649
G0 X47.812 Y74.194
G0 X52.967 Y74.546
G0 X53.549 Y74.716
G0 X54.06 Y75.044
G0 X54.458 Y75.505
G0 X54.711 Y76.056
G0 X54.797 Y76.658
G0 X54.711 Y77.259
G0 X54.507 Y77.704
G0 X53.617 Y78.747
;TYPE:WALL-INNER
G1 F1500 E68.88373
G1 F1200 X54.167 Y78.393 E68.90549
G1 X54.595 Y77.899 E68.92723
G1 X54.867 Y77.305 E68.94896
G1 X54.959 Y76.658 E68.97069
G1 X54.867 Y76.01 E68.99246
G1 X54.595 Y75.416 E69.01419
G1 X54.167 Y74.922 E69.03593
G1 X53.617 Y74.568 E69.05769
G1 X52.99 Y74.385 E69.07941
G1 X47.84 Y74.385 E69.2507
G1 X47.213 Y74.568 E69.27242
G1 X46.663 Y74.922 E69.29418
G1 X46.235 Y75.416 E69.31592
G1 X45.963 Y76.01 E69.33765
G1 X45.871 Y76.658 E69.35942
G1 X45.963 Y77.305 E69.38115
G1 X46.235 Y77.899 E69.40288
G1 X46.663 Y78.393 E69.42462
G1 X47.213 Y78.747 E69.44638
G1 X47.839 Y78.931 E69.46808
G1 X52.991 Y78.931 E69.63943
G1 X53.617 Y78.747 E69.66113
G0 F6000 X53.449 Y78.379
;TYPE:WALL-OUTER
G1 F1200 X53.902 Y78.088 E69.67904
G1 X54.255 Y77.68 E69.69699
G1 X54.479 Y77.191 E69.71488
G1 X54.555 Y76.658 E69.73278
G1 X54.479 Y76.124 E69.75072
G1 X54.255 Y75.635 E69.76861
G1 X53.902 Y75.227 E69.78656
G1 X53.449 Y74.936 E69.80446
G1 X52.933 Y74.785 E69.82235
G1 X47.897 Y74.785 E69.98984
G1 X47.381 Y74.936 E70.00773
G1 X46.928 Y75.227 E70.02563
G1 X46.575 Y75.635 E70.04358
G1 X46.351 Y76.124 E70.06147
G1 X46.275 Y76.658 E70.07941
G1 X46.351 Y77.191 E70.09731
G1 X46.575 Y77.68 E70.1152
G1 X46.928 Y78.088 E70.13315
G1 X47.381 Y78.379 E70.15106
G1 X47.897 Y78.531 E70.16895
G1 X52.933 Y78.531 E70.33645
G1 X53.449 Y78.379 E70.35434
G0 F6000 X53.631 Y78.779
G1 F1500 E63.85434
G0 F6000 X54.458 Y77.81
G0 X54.711 Y77.259
G0 X54.797 Y76.658
G0 X54.711 Y76.056
G0 X54.458 Y75.505
G0 X54.233 Y75.245
G0 X53.018 Y74.194
G0 X52.808 Y75.649
G0 X54.917 Y59.204
G0 X56.927 Y41.433
G0 X57.24 Y41.092
G0 X58.629 Y30.28
G0 X58.629 Y31.735
G0 X61.926 Y31.541
;TYPE:WALL-INNER
G1 F1500 E70.35434
G1 F1200 X62.423 Y31.39 E70.37161
G1 X62.854 Y31.158 E70.38789
