;FLAVOR:Marlin
;TIME:14101
;Filament used: 17.2624m
;Layer height: 0.2
;MINX:31.566
;MINY:14.974
;MINZ:0.2
;MAXX:188.434
;MAXY:205.026
;MAXZ:9
;Generated with Cura_SteamEngine 4.11.0
M140 S60
M105
M190 S60
M104 S200
M105
M109 S200
M82 ;absolute extrusion mode
; Ender 3 Custom Start G-code
G92 E0 ; Reset Extruder
G28 ; Home all axes
G1 Z2.0 F3000 ; Move Z Axis up little to prevent scratching of Heat Bed
G1 X0.1 Y20 Z0.3 F5000.0 ; Move to start position
G1 X0.1 Y200.0 Z0.3 F1500.0 E15 ; Draw the first line
G1 X0.4 Y200.0 Z0.3 F5000.0 ; Move to side a little
G1 X0.4 Y20 Z0.3 F1500.0 E30 ; Draw the second line
G92 E0 ; Reset Extruder
G1 Z2.0 F3000 ; Move Z Axis up little to prevent scratching of Heat Bed
G1 X5 Y20 Z0.3 F5000.0 ; Move over to prevent blob squish
G92 E0
G92 E0
G1 F1500 E-6.5
;LAYER_COUNT:45
;LAYER:0
M107
G0 F6000 X33.058 Y20.467 Z0.2
;TYPE:SKIRT
G1 F1500 E0
G1 F1200 X33.562 Y19.677 E0.03117
G1 X34.132 Y18.932 E0.06237
G1 X34.764 Y18.238 E0.09359
G1 X35.452 Y17.601 E0.12477
G1 X36.192 Y17.025 E0.15596
G1 X36.978 Y16.513 E0.18716
G1 X37.805 Y16.071 E0.21835
G1 X38.667 Y15.701 E0.24955
G1 X39.557 Y15.405 E0.28074
G1 X40.469 Y15.187 E0.31193
G1 X41.396 Y15.046 E0.34312
G1 X42.267 Y14.987 E0.37216
G1 X42.588 Y14.978 E0.38284
G1 X42.896 Y14.974 E0.39308
G1 X176.727 Y14.974 E4.84432
G1 X177.583 Y14.985 E4.87279
G1 X178.519 Y15.039 E4.90397
G1 X179.447 Y15.171 E4.93515
G1 X180.361 Y15.383 E4.96636
G1 X181.253 Y15.672 E4.99754
G1 X182.118 Y16.035 E5.02874
G1 X182.948 Y16.471 E5.05993
G1 X183.739 Y16.976 E5.09114
G1 X184.483 Y17.547 E5.12233
G1 X185.176 Y18.179 E5.15353
G1 X185.813 Y18.867 E5.18471
G1 X186.388 Y19.608 E5.21591
G1 X186.899 Y20.394 E5.24709
G1 X187.341 Y21.222 E5.27831
G1 X187.71 Y22.084 E5.30949
G1 X188.005 Y22.974 E5.34068
G1 X188.223 Y23.886 E5.37187
G1 X188.363 Y24.814 E5.40308
G1 X188.421 Y25.675 E5.43178
G1 X188.43 Y25.995 E5.44243
G1 X188.434 Y26.304 E5.45271
G1 X188.433 Y173.746 E10.35665
G1 X188.422 Y174.479 E10.38103
G1 X188.369 Y175.4 E10.41172
G1 X188.347 Y175.617 E10.41897
G1 X188.121 Y178.279 E10.50783
G1 X187.982 Y180.752 E10.59021
G1 X187.899 Y184.685 E10.72105
G1 X187.898 Y193.441 E11.01228
G1 X187.888 Y194.168 E11.03646
G1 X187.835 Y195.105 E11.06767
G1 X187.703 Y196.033 E11.09885
G1 X187.492 Y196.947 E11.13005
G1 X187.203 Y197.839 E11.16124
G1 X186.84 Y198.704 E11.19244
G1 X186.405 Y199.535 E11.22363
G1 X185.9 Y200.325 E11.25482
G1 X185.33 Y201.07 E11.28602
G1 X184.699 Y201.764 E11.31722
G1 X184.01 Y202.401 E11.34842
G1 X183.27 Y202.977 E11.37961
G1 X182.484 Y203.488 E11.4108
G1 X181.657 Y203.93 E11.44198
G1 X180.795 Y204.3 E11.47318
G1 X179.905 Y204.595 E11.50437
G1 X178.993 Y204.814 E11.53557
G1 X178.066 Y204.954 E11.56675
G1 X177.198 Y205.013 E11.59568
G1 X176.878 Y205.022 E11.60633
G1 X176.569 Y205.026 E11.61661
G1 X153.452 Y205.025 E12.38548
G1 X152.749 Y205.015 E12.40887
G1 X151.812 Y204.962 E12.44008
G1 X150.884 Y204.829 E12.47126
G1 X149.97 Y204.617 E12.50247
G1 X149.078 Y204.329 E12.53365
G1 X148.213 Y203.965 E12.56486
G1 X147.383 Y203.529 E12.59604
G1 X146.377 Y202.869 E12.63606
G1 X146.296 Y202.809 E12.63941
G1 X144.129 Y201.255 E12.7281
G1 X142.035 Y199.842 E12.81212
G1 X139.9 Y198.487 E12.89623
G1 X137.751 Y197.207 E12.97942
G1 X135.555 Y195.982 E13.06306
G1 X133.321 Y194.817 E13.14686
G1 X131.055 Y193.715 E13.23067
G1 X128.768 Y192.683 E13.31412
G1 X126.429 Y191.706 E13.39843
G1 X124.08 Y190.8 E13.48216
G1 X121.715 Y189.969 E13.56554
G1 X119.322 Y189.2 E13.64914
G1 X116.89 Y188.493 E13.73338
G1 X114.482 Y187.867 E13.81613
G1 X111.995 Y187.295 E13.90101
G1 X109.538 Y186.801 E13.98436
G1 X107.08 Y186.382 E14.06729
G1 X104.551 Y186.023 E14.15225
G1 X102.066 Y185.742 E14.23543
G1 X99.587 Y185.531 E14.31818
G1 X97.091 Y185.39 E14.40133
G1 X93.157 Y185.307 E14.53221
G1 X43.115 Y185.306 E16.19661
G1 X42.417 Y185.296 E16.21983
G1 X41.481 Y185.242 E16.25101
G1 X40.553 Y185.11 E16.28219
G1 X39.639 Y184.898 E16.31339
G1 X38.747 Y184.609 E16.34458
G1 X37.882 Y184.246 E16.37578
G1 X37.052 Y183.81 E16.40696
G1 X36.261 Y183.305 E16.43818
G1 X35.517 Y182.734 E16.46937
G1 X34.824 Y182.102 E16.50056
G1 X34.187 Y181.414 E16.53175
G1 X33.612 Y180.673 E16.56295
G1 X33.101 Y179.887 E16.59413
G1 X32.659 Y179.059 E16.62534
G1 X32.29 Y178.197 E16.65653
G1 X31.995 Y177.307 E16.68772
G1 X31.777 Y176.395 E16.7189
G1 X31.637 Y175.467 E16.75012
G1 X31.579 Y174.595 E16.77919
G1 X31.57 Y174.263 E16.79023
G1 X31.566 Y173.965 E16.80014
G1 X31.567 Y26.499 E21.70488
G1 X31.576 Y25.834 E21.727
G1 X31.629 Y24.898 E21.75818
G1 X31.761 Y23.969 E21.78939
G1 X31.972 Y23.055 E21.82059
G1 X32.26 Y22.163 E21.85177
G1 X32.623 Y21.298 E21.88297
G1 X33.058 Y20.467 E21.91417
G0 F6000 X33.455 Y20.58
G1 F1200 X33.958 Y19.809 E21.94479
G1 X34.527 Y19.085 E21.97541
G1 X35.155 Y18.413 E22.006
G1 X35.84 Y17.797 E22.03664
G1 X36.576 Y17.244 E22.06726
G1 X37.357 Y16.756 E22.09789
G1 X38.177 Y16.338 E22.12851
G1 X39.031 Y15.993 E22.15914
G1 X39.911 Y15.723 E22.18976
G1 X40.811 Y15.531 E22.22036
G1 X41.725 Y15.417 E22.251
G1 X42.278 Y15.387 E22.26942
G1 X42.599 Y15.378 E22.2801
G1 X42.896 Y15.374 E22.28998
G1 X176.727 Y15.374 E26.74122
G1 X177.577 Y15.385 E26.76949
G1 X178.496 Y15.438 E26.80011
G1 X179.407 Y15.571 E26.83073
G1 X180.303 Y15.782 E26.86134
G1 X181.177 Y16.07 E26.89195
G1 X182.024 Y16.433 E26.9226
G1 X182.835 Y16.868 E26.95321
G1 X183.605 Y17.372 E26.98382
G1 X184.329 Y17.941 E27.01445
G1 X185.001 Y18.571 E27.04508
G1 X185.616 Y19.256 E27.0757
G1 X186.169 Y19.992 E27.10632
G1 X186.656 Y20.773 E27.13693
G1 X187.073 Y21.594 E27.16756
G1 X187.418 Y22.448 E27.19819
G1 X187.687 Y23.328 E27.2288
G1 X187.879 Y24.229 E27.25944
G1 X187.992 Y25.142 E27.29004
G1 X188.021 Y25.686 E27.30816
G1 X188.03 Y26.006 E27.3188
G1 X188.034 Y26.304 E27.32872
G1 X188.033 Y173.74 E32.23246
G1 X188.022 Y174.473 E32.25684
G1 X187.971 Y175.36 E32.28639
G1 X187.943 Y175.644 E32.29588
G1 X187.721 Y178.257 E32.3831
G1 X187.582 Y180.722 E32.46522
G1 X187.499 Y184.677 E32.59679
G1 X187.498 Y193.436 E32.88812
G1 X187.488 Y194.163 E32.9123
G1 X187.435 Y195.082 E32.94292
G1 X187.303 Y195.993 E32.97354
G1 X187.092 Y196.889 E33.00415
G1 X186.805 Y197.764 E33.03478
G1 X186.442 Y198.61 E33.0654
G1 X186.008 Y199.422 E33.09602
G1 X185.504 Y200.193 E33.12666
G1 X184.936 Y200.917 E33.15726
G1 X184.307 Y201.589 E33.18788
G1 X183.622 Y202.204 E33.2185
G1 X182.886 Y202.757 E33.24912
G1 X182.105 Y203.245 E33.27975
G1 X181.285 Y203.663 E33.31036
G1 X180.431 Y204.008 E33.34099
G1 X179.551 Y204.277 E33.3716
G1 X178.65 Y204.47 E33.40225
G1 X177.737 Y204.583 E33.43284
G1 X177.187 Y204.613 E33.45116
G1 X176.867 Y204.622 E33.46181
G1 X176.569 Y204.626 E33.47172
G1 X153.457 Y204.625 E34.24043
G1 X152.754 Y204.615 E34.26382
G1 X151.835 Y204.562 E34.29443
G1 X150.924 Y204.429 E34.32505
G1 X150.028 Y204.218 E34.35567
G1 X149.154 Y203.93 E34.38628
G1 X148.307 Y203.567 E34.41693
G1 X147.496 Y203.132 E34.44754
G1 X146.614 Y202.547 E34.48274
G1 X146.478 Y202.446 E34.48837
G1 X144.357 Y200.926 E34.57516
G1 X142.252 Y199.505 E34.65963
G1 X140.139 Y198.164 E34.74287
G1 X137.945 Y196.858 E34.82779
G1 X135.756 Y195.636 E34.91118
G1 X133.474 Y194.446 E34.99678
G1 X131.258 Y193.369 E35.07872
G1 X128.907 Y192.308 E35.16451
G1 X126.579 Y191.335 E35.24843
G1 X124.191 Y190.415 E35.33355
G1 X121.866 Y189.597 E35.41553
G1 X119.441 Y188.818 E35.50024
G1 X117.006 Y188.11 E35.58458
G1 X114.559 Y187.474 E35.66867
G1 X112.092 Y186.906 E35.75287
G1 X109.585 Y186.403 E35.83792
G1 X107.167 Y185.991 E35.9195
G1 X104.615 Y185.628 E36.00524
G1 X102.112 Y185.345 E36.08902
G1 X99.573 Y185.128 E36.17377
G1 X97.121 Y184.99 E36.25545
G1 X93.165 Y184.907 E36.38706
G1 X43.121 Y184.906 E38.05153
G1 X42.423 Y184.896 E38.07475
G1 X41.504 Y184.843 E38.10537
G1 X40.593 Y184.71 E38.13599
G1 X39.697 Y184.499 E38.1666
G1 X38.823 Y184.211 E38.19721
G1 X37.976 Y183.848 E38.22786
G1 X37.165 Y183.413 E38.25847
G1 X36.395 Y182.909 E38.28908
G1 X35.671 Y182.34 E38.3197
G1 X34.999 Y181.71 E38.35034
G1 X34.384 Y181.025 E38.38096
G1 X33.831 Y180.289 E38.41158
G1 X33.344 Y179.508 E38.44219
G1 X32.927 Y178.687 E38.47282
G1 X32.582 Y177.833 E38.50345
G1 X32.313 Y176.953 E38.53406
G1 X32.121 Y176.052 E38.5647
G1 X32.008 Y175.139 E38.5953
G1 X31.979 Y174.584 E38.61378
G1 X31.97 Y174.252 E38.62483
G1 X31.966 Y173.965 E38.63437
G1 X31.967 Y26.505 E43.53891
G1 X31.976 Y25.84 E43.56103
G1 X32.028 Y24.92 E43.59168
G1 X32.16 Y24.009 E43.6223
G1 X32.371 Y23.113 E43.65291
G1 X32.658 Y22.238 E43.68354
G1 X33.021 Y21.392 E43.71416
G1 X33.455 Y20.58 E43.74478
G0 F6000 X33.852 Y20.696
G1 F1200 X34.354 Y19.945 E43.77483
G1 X34.921 Y19.241 E43.80489
G1 X35.547 Y18.591 E43.83491
G1 X36.228 Y17.998 E43.86494
G1 X36.96 Y17.468 E43.895
G1 X37.735 Y17.005 E43.92503
G1 X38.548 Y16.612 E43.95506
G1 X39.393 Y16.292 E43.98511
G1 X40.262 Y16.049 E44.01513
G1 X41.15 Y15.883 E44.04517
G1 X42.289 Y15.787 E44.08319
G1 X42.61 Y15.778 E44.09387
G1 X42.896 Y15.774 E44.10338
G1 X176.727 Y15.774 E48.55462
G1 X177.571 Y15.785 E48.5827
G1 X178.473 Y15.838 E48.61275
G1 X179.366 Y15.97 E48.64277
G1 X180.244 Y16.181 E48.67281
G1 X181.1 Y16.469 E48.70284
G1 X181.927 Y16.831 E48.73287
G1 X182.719 Y17.266 E48.76292
G1 X183.47 Y17.768 E48.79297
G1 X184.173 Y18.335 E48.82301
G1 X184.823 Y18.962 E48.85305
G1 X185.415 Y19.644 E48.88308
G1 X185.945 Y20.375 E48.91312
G1 X186.407 Y21.151 E48.94315
G1 X186.8 Y21.964 E48.97319
G1 X187.118 Y22.809 E49.00322
G1 X187.361 Y23.679 E49.03326
G1 X187.526 Y24.567 E49.0633
G1 X187.621 Y25.697 E49.10102
G1 X187.63 Y26.017 E49.11166
G1 X187.634 Y26.304 E49.12121
G1 X187.633 Y173.734 E54.02475
G1 X187.622 Y174.467 E54.04914
G1 X187.573 Y175.321 E54.07759
G1 X187.55 Y175.549 E54.08521
G1 X187.322 Y178.236 E54.1749
G1 X187.182 Y180.719 E54.25761
G1 X187.099 Y184.668 E54.38899
G1 X187.098 Y193.43 E54.68041
G1 X187.088 Y194.157 E54.7046
G1 X187.036 Y195.059 E54.73465
G1 X186.904 Y195.952 E54.76467
G1 X186.693 Y196.831 E54.79474
G1 X186.406 Y197.687 E54.82476
G1 X186.044 Y198.514 E54.85479
G1 X185.61 Y199.306 E54.88483
G1 X185.108 Y200.057 E54.91487
G1 X184.542 Y200.76 E54.94489
G1 X183.915 Y201.411 E54.97495
G1 X183.234 Y202.003 E55.00497
G1 X182.503 Y202.533 E55.035
G1 X181.727 Y202.996 E55.06505
G1 X180.914 Y203.389 E55.09509
G1 X180.069 Y203.709 E55.12514
G1 X179.2 Y203.952 E55.15515
G1 X178.312 Y204.117 E55.18519
G1 X177.176 Y204.213 E55.22311
G1 X176.856 Y204.222 E55.23376
G1 X176.569 Y204.226 E55.2433
G1 X153.463 Y204.225 E56.01181
G1 X152.76 Y204.215 E56.0352
G1 X151.858 Y204.162 E56.06525
G1 X150.965 Y204.03 E56.09527
G1 X150.087 Y203.819 E56.12531
G1 X149.231 Y203.531 E56.15535
G1 X148.404 Y203.169 E56.18537
G1 X147.612 Y202.735 E56.21541
G1 X146.852 Y202.225 E56.24585
G1 X146.745 Y202.146 E56.25027
G1 X144.592 Y200.602 E56.33839
G1 X142.46 Y199.163 E56.42394
G1 X140.352 Y197.825 E56.50699
G1 X138.15 Y196.514 E56.59222
G1 X135.93 Y195.275 E56.67678
G1 X133.655 Y194.089 E56.76211
G1 X131.419 Y193.002 E56.84481
G1 X129.09 Y191.951 E56.92979
G1 X126.728 Y190.965 E57.01492
G1 X124.341 Y190.044 E57.10002
G1 X121.962 Y189.207 E57.1839
G1 X119.57 Y188.439 E57.26746
G1 X117.113 Y187.725 E57.35256
G1 X114.652 Y187.085 E57.43713
G1 X112.182 Y186.517 E57.52143
G1 X109.666 Y186.011 E57.60679
G1 X107.178 Y185.587 E57.69073
G1 X104.684 Y185.233 E57.77452
G1 X102.154 Y184.946 E57.8592
G1 X99.628 Y184.731 E57.94352
G1 X97.124 Y184.59 E58.02694
G1 X93.174 Y184.507 E58.15834
G1 X43.127 Y184.506 E59.82291
G1 X42.429 Y184.496 E59.84613
G1 X41.527 Y184.443 E59.87618
G1 X40.634 Y184.311 E59.90621
G1 X39.756 Y184.1 E59.93624
G1 X38.9 Y183.812 E59.96628
G1 X38.073 Y183.45 E59.99631
G1 X37.281 Y183.015 E60.02636
G1 X36.53 Y182.513 E60.05641
G1 X35.827 Y181.946 E60.08644
G1 X35.177 Y181.319 E60.11648
G1 X34.585 Y180.637 E60.14652
G1 X34.055 Y179.906 E60.17655
G1 X33.593 Y179.13 E60.20659
G1 X33.2 Y178.317 E60.23662
G1 X32.882 Y177.472 E60.26665
G1 X32.639 Y176.602 E60.2967
G1 X32.474 Y175.714 E60.32674
G1 X32.379 Y174.573 E60.36482
G1 X32.37 Y174.241 E60.37586
G1 X32.366 Y173.965 E60.38504
G1 X32.367 Y26.51 E65.28942
G1 X32.376 Y25.845 E65.31154
G1 X32.428 Y24.943 E65.34159
G1 X32.56 Y24.05 E65.37161
G1 X32.77 Y23.172 E65.40164
G1 X33.057 Y22.315 E65.4317
G1 X33.419 Y21.488 E65.46172
G1 X33.852 Y20.696 E65.49175
G1 F1500 E58.99175
;MESH:upper_layer_base.stl
G0 F6000 X41.913 Y174.96
G0 X153.315 Y178.383
G0 X153.315 Y179.462
G0 X153.501 Y193.426
;TYPE:WALL-INNER
G1 F1500 E65.49175
G1 F1200 X153.501 Y179.648 E65.95
G1 X176.299 Y179.648 E66.70827
G1 X176.299 Y193.426 E67.16653
G1 X153.501 Y193.426 E67.92479
G0 F6000 X153.101 Y193.826
;TYPE:WALL-OUTER
G1 F1200 X153.101 Y179.248 E68.40966
G1 X176.699 Y179.248 E69.19453
G1 X176.699 Y193.826 E69.6794
G1 X153.101 Y193.826 E70.46427
G0 F6000 X153.371 Y193.556
G0 X153.611 Y193.036
G0 X153.891 Y193.036
;TYPE:SKIN
G1 F1200 X153.891 Y180.038 E70.89658
G1 X175.909 Y180.038 E71.62891
G1 X175.909 Y193.036 E72.06122
G1 X153.891 Y193.036 E72.79354
G0 F6000 X154.408 Y192.875
G1 F1200 X154.05 Y192.517 E72.81038
G0 F6000 X154.05 Y191.951
G1 F1200 X154.974 Y192.875 E72.85384
G0 F6000 X155.54 Y192.875
G1 F1200 X154.05 Y191.386 E72.92391
G0 F6000 X154.05 Y190.82
G1 F1200 X156.105 Y192.875 E73.02057
G0 F6000 X156.671 Y192.875
G1 F1200 X154.05 Y190.254 E73.14385
G0 F6000 X154.05 Y189.689
G1 F1200 X157.237 Y192.875 E73.29373
G0 F6000 X157.802 Y192.875
G1 F1200 X154.05 Y189.123 E73.47022
G0 F6000 X154.05 Y188.557
G1 F1200 X158.368 Y192.875 E73.67332
G0 F6000 X158.934 Y192.875
G1 F1200 X154.05 Y187.992 E73.90303
G0 F6000 X154.05 Y187.426
G1 F1200 X159.499 Y192.875 E74.15933
G0 F6000 X160.065 Y192.875
G1 F1200 X154.05 Y186.86 E74.44226
G0 F6000 X154.05 Y186.295
G1 F1200 X160.631 Y192.875 E74.75178
G0 F6000 X161.197 Y192.875
G1 F1200 X154.05 Y185.729 E75.08793
G0 F6000 X154.05 Y185.163
G1 F1200 X161.762 Y192.875 E75.45068
G0 F6000 X162.328 Y192.875
G1 F1200 X154.05 Y184.598 E75.84003
G0 F6000 X154.05 Y184.032
G1 F1200 X162.894 Y192.875 E76.256
G0 F6000 X163.459 Y192.875
G1 F1200 X154.05 Y183.466 E76.69857
G0 F6000 X154.05 Y182.9
G1 F1200 X164.025 Y192.875 E77.16777
G0 F6000 X164.591 Y192.875
G1 F1200 X154.05 Y182.335 E77.66356
G0 F6000 X154.05 Y181.769
G1 F1200 X165.156 Y192.875 E78.18595
G0 F6000 X165.722 Y192.875
G1 F1200 X154.05 Y181.203 E78.73497
G0 F6000 X154.05 Y180.638
G1 F1200 X166.288 Y192.875 E79.31058
G0 F6000 X166.853 Y192.875
G1 F1200 X154.175 Y180.196 E79.90694
G0 F6000 X154.741 Y180.196
G1 F1200 X167.419 Y192.875 E80.5033
G0 F6000 X167.985 Y192.875
G1 F1200 X155.306 Y180.196 E81.09968
G0 F6000 X155.872 Y180.196
G1 F1200 X168.55 Y192.875 E81.69604
G0 F6000 X169.116 Y192.875
G1 F1200 X156.438 Y180.196 E82.29239
G0 F6000 X157.003 Y180.196
G1 F1200 X169.682 Y192.875 E82.88877
G0 F6000 X170.247 Y192.875
G1 F1200 X157.569 Y180.196 E83.48513
G0 F6000 X158.135 Y180.196
G1 F1200 X170.813 Y192.875 E84.08149
G0 F6000 X171.379 Y192.875
G1 F1200 X158.7 Y180.196 E84.67787
G0 F6000 X159.266 Y180.196
G1 F1200 X171.945 Y192.875 E85.27425
G0 F6000 X172.51 Y192.875
G1 F1200 X159.832 Y180.196 E85.87061
G0 F6000 X160.397 Y180.196
G1 F1200 X173.076 Y192.875 E86.46699
G0 F6000 X173.642 Y192.875
G1 F1200 X160.963 Y180.196 E87.06337
G0 F6000 X161.529 Y180.196
G1 F1200 X174.207 Y192.875 E87.65973
G0 F6000 X174.773 Y192.875
G1 F1200 X162.095 Y180.196 E88.25609
G0 F6000 X162.66 Y180.196
G1 F1200 X175.339 Y192.875 E88.85247
G0 F6000 X175.749 Y192.719
G1 F1200 X163.226 Y180.196 E89.44151
G0 F6000 X163.792 Y180.196
G1 F1200 X175.749 Y192.154 E90.00396
G0 F6000 X175.749 Y191.588
G1 F1200 X164.357 Y180.196 E90.5398
G0 F6000 X164.923 Y180.196
G1 F1200 X175.749 Y191.022 E91.04902
G0 F6000 X175.749 Y190.457
G1 F1200 X165.489 Y180.196 E91.53165
G0 F6000 X166.054 Y180.196
G1 F1200 X175.749 Y189.891 E91.98767
G0 F6000 X175.749 Y189.325
G1 F1200 X166.62 Y180.196 E92.41707
G0 F6000 X167.186 Y180.196
G1 F1200 X175.749 Y188.76 E92.81987
G0 F6000 X175.749 Y188.194
G1 F1200 X167.751 Y180.196 E93.19607
G0 F6000 X168.317 Y180.196
G1 F1200 X175.749 Y187.628 E93.54565
G0 F6000 X175.749 Y187.062
G1 F1200 X168.883 Y180.196 E93.86861
